img/menu/m-icons-cat4.svg

<svg width="24" height="24" viewBox="0 0 24 24" fill="none" xmlns="http://www.w3.org/2000/svg">
<g clip-path="url(#clip0)">
<g clip-path="url(#clip1)">
<path d="M14.9712 16.9808L7.73513 9.74467C7.67275 9.68229 7.54799 9.55753 7.48561 9.49515C6.11324 8.12279 3.86756 8.12279 2.4952 9.49515C1.12284 10.8675 1.12284 13.1132 2.4952 14.4856L9.98081 21.9712C11.3532 23.3435 13.5989 23.3435 14.9712 21.9712C16.3436 20.5988 16.3436 18.3531 14.9712 16.9808ZM4.9904 14.4856L3.7428 13.238C3.05662 12.5518 3.05662 11.4289 3.7428 10.7428C4.42898 10.0566 5.55182 10.0566 6.238 10.7428C6.30038 10.8051 6.36276 10.8675 6.42514 10.9299L6.48752 10.9923L6.5499 11.0547L11.6027 16.1074C10.9789 16.2322 10.4175 16.5441 9.98081 16.9808C9.54415 17.4174 9.23225 17.9788 9.10749 18.6026L4.9904 14.4856ZM13.7236 20.7236C13.0374 21.4097 11.9146 21.4097 11.2284 20.7236C10.5422 20.0374 10.5422 18.9145 11.2284 18.2284C11.9146 17.5422 13.0374 17.5422 13.7236 18.2284C14.4098 18.9145 14.4098 20.0374 13.7236 20.7236Z" fill="#034899"/>
</g>
<g clip-path="url(#clip2)">
<path d="M22.1655 10.1774L14.6799 2.69179C14.368 2.37989 13.9313 2.19275 13.4323 2.19275L9.87661 2.25513C9.43995 2.19275 8.94091 2.44227 8.62901 2.75417C8.31711 3.06607 8.12997 3.50273 8.12997 4.00177L8.12997 7.49505C8.12997 7.99409 8.31711 8.43076 8.62901 8.74266L16.1146 16.2283C16.4265 16.5402 16.8632 16.7273 17.3622 16.7273L20.8555 16.7273C21.3545 16.7273 21.7912 16.5402 22.1031 16.2283C22.415 15.9164 22.6021 15.4797 22.6021 14.9807L22.6021 11.4874C22.6645 10.926 22.4774 10.4893 22.1655 10.1774ZM9.87661 7.49505L9.87661 4.00177L13.3699 4.00177L19.1089 9.74074L17.3622 9.74074C16.9256 9.67836 16.4265 9.92788 16.1146 10.2398C15.8027 10.5517 15.6156 10.9883 15.6156 11.4874L15.6156 13.234L11.1242 8.74266L10.5628 8.18123L9.87661 7.49505ZM20.9179 15.043L17.3622 14.9807L17.3622 11.4874L20.8555 11.4874L20.9179 15.043Z" fill="#034899"/>
</g>
</g>
<defs>
<clipPath id="clip0">
<rect width="24" height="24" fill="white"/>
</clipPath>
<clipPath id="clip1">
<rect width="7.0575" height="17.6437" fill="white" transform="translate(0 11.9904) rotate(-45)"/>
</clipPath>
<clipPath id="clip2">
<rect width="8.55721" height="19.1435" fill="white" transform="translate(5.63477 5.74841) rotate(-45)"/>
</clipPath>
</defs>
</svg>

<svg width="24" height="24" fill="none" xmlns="http://www.w3.org/2000/svg"><g clip-path="url(#clip0)"><g clip-path="url(#clip1)"><path d="M14.971 16.98L7.735 9.746l-.25-.25a3.54 3.54 0 0 0-4.99 0 3.54 3.54 0 0 0 0 4.99l7.486 7.486a3.54 3.54 0 0 0 4.99 0 3.539 3.539 0 0 0 0-4.99zm-9.98-2.494l-1.248-1.248a1.77 1.77 0 0 1 0-2.495 1.77 1.77 0 0 1 2.495 0l.187.187.063.062.062.063 5.053 5.052a3.181 3.181 0 0 0-1.622.874 3.18 3.18 0 0 0-.874 1.622L4.99 14.486zm8.733 6.238a1.77 1.77 0 0 1-2.496 0 1.77 1.77 0 0 1 0-2.496 1.77 1.77 0 0 1 2.496 0 1.77 1.77 0 0 1 0 2.496z" fill="#034899"/></g><g clip-path="url(#clip2)"><path d="M22.166 10.177L14.68 2.692a1.742 1.742 0 0 0-1.248-.5l-3.555.063c-.437-.062-.936.187-1.248.5a1.742 1.742 0 0 0-.499 1.247v3.493c0 .5.187.936.499 1.248l7.486 7.485c.312.312.748.5 1.247.5h3.494c.498 0 .935-.188 1.247-.5.312-.312.5-.748.5-1.247v-3.494c.061-.561-.126-.998-.438-1.31zM9.876 7.495V4.002h3.494l5.739 5.739h-1.747c-.436-.063-.935.187-1.247.499a1.742 1.742 0 0 0-.5 1.247v1.747l-4.49-4.491-.562-.562-.686-.686zm11.042 7.548l-3.556-.062v-3.494h3.494l.062 3.556z" fill="#034899"/></g></g><defs><clipPath id="clip0"><path fill="#fff" d="M0 0h24v24H0z"/></clipPath><clipPath id="clip1"><path fill="#fff" transform="rotate(-45 14.474 5.995)" d="M0 0h7.058v17.644H0z"/></clipPath><clipPath id="clip2"><path fill="#fff" transform="rotate(-45 9.756 -3.928)" d="M0 0h8.557v19.143H0z"/></clipPath></defs></svg>
